X: 1
T:den Ny Sonderh\o{}ning
R:Sonderh\o{}ning
O:Denmark
M:2/4
A:Fan\o{}
K:G
G2G2 B2B2 | A2A2 c4 | BdBG AcAF | G2DD D2D2 |\
G2G2 B2B2 | A2A2 c4 | BdBG AcAF | G4 G4 :|
|:\
B2B2 d4 | edcB A4 | c2c2 e4 | fedc B4 | \
G2G2 B2B2 | A2A2 c4 | BdBG AcAF | G4 G4 :|
